X:1
T:Su la riva del Tebro
T:Su la riva del Tebro
T:Angelo Notari
T:Source : Musiche nuove a 1,2 et 3 voci---London---W.Hole---1613. Editor : André Vierendeels (24/03/14).
T:Notes : Original clefs : C1, C1, F4 Editorial accidentals above the staff Original is manuscript.
C:Angelo Notari
%%score [ 1 2 ] 3
L:1/8
Q:1/4=100
M:4/4
K:C
V:1 treble nm="Soprano 1" snm="S 1"
V:2 treble nm="Soprano 2" snm="S 2"
V:3 bass nm="MusicXML Part"
V:1
 z2 Bc d4 | d2 d2 e4 | d2 d4 f2 | e2 d2 e4 | d4 z2 A2 | B2 c2 d2 e2 | A2 G2 A4 | G8 :: %8
w: Su la ri-|va del Te-|bro, un di|d'A- pri- *|le, sta-|va'un Pa stor gen-|ti- * *|le,|
w: Ha- ve- va'il|crin di fio-|ri, e fron|de ci- a-|to,- et|il suo vol- to|tin- * *|to,-|
w: Co- * nos-|ca il mon-|do vil, per-|fi- do'in- gra-|te, il|no- me si pre-|gia- * *|to,|
 z2 e2 B2 c2 | G6 A2 | B4 z4 | ^G6 A2 | B4 c4 | ^G4 A4- | A4 ^G4 | A8 | z4 e2 e2 | e4 e2 e2 | e8 | %19
w: che con gli|stri- *|di|do- lo-|ro- si'e|las- *||si,|fac- ca|pian- ger i|sas-|
w: suo vol- to|di pal-|lor,|e- co-|si ri-|vol- to'al|_ so-|le,|di- cea|que- ste pa-|ro-|
w: de le mia|Nin- *|fa,|e piu|non po-|tra di-||re,|che si|sen- tia mo-|ri-|
 d8 | z4 A2 A2 | A4 A2 A2 | A8 | G8- | G8 :| %25
w: si,|fac- ca|pian- ger i|sas-|si.|_|
w: le,|di- cea|que- ste pa-|ro-|le.|_|
w: re,|che si|sen- tia mo-|ri-|re.|_|
V:2
 z2 GA B4 | A2 B2 c4 | B2 B4 d2 | ^c2 d4 c2 | d2 A2 B2 c2 | d4 G4 | ^F2 G4 F2 | G8 :: z8 | %9
w: Su la ri-|va del Te-|bro, un di|d'A- pri- *|le, sta- 'un- Pa-|stor gen-|ti- * *|le,||
w: Ha- ve- va'il|crin di fio-|ri, e fron-|de ci- a-|to, et il suo|vol- to|tin- * *|to,||
w: Co- * nos-|ca il mon-|do vil, per-|fi- di'in- gra-|te, il no- me|si pre-|gia- * *|to,||
 z2 e2 B2 c2 | G6 A2 | B4 z4 | ^G6 A2 | B4 c4 | B8 | A4 c2 c2 | c4 B2 B2 | ^c4 d4- | d4 ^c4 | %19
w: che con gli|stri- *|di|do- lo-|ro- si'e|las-|si, fa- ca|pian- ger i|sas- *||
w: suo vol- to|di pal-|lor,|e co-|si ri-|vol-|to, di- cea|que- ste pa-|ro- *||
w: de le mia|Nin- *|fa,|piu- non|po- tra|di-|re, che- si|sen- tia mo-|ri- *||
 d4 ^F2 F2 | ^F4 E2 E2 | ^F4 G4- | G4 ^F4 | G8- | G8 :| %25
w: si, fa- ca|pia- cer i|pas- *||si,|_|
w: le, di- cea|que- sta pa-|ro- *||le.|_|
w: re che si|sen- tia mo-|ri- *||re.|_|
V:3
 G,4 G,,4 | ^F,,2 G,,2 C,4 | G,2 G,4 D,2 | A,2 _B,2 A,4 | D,4 G,2 F,E, | D,2 C,2 B,,2 C,2 | %6
 D,2 E,2 D,4 | G,,8 :: C,4 E,4 | E,8 | E,8 | E,8- | E,8 | E,8- | E,8 | A,,4 A,2 A,2 | %16
 A,4 ^G,2 G,2 | A,8 | A,,8 | D,4 D,2 D,2 | D,4 ^C,2 C,2 | D,8- | D,8 | G,,8- | G,,8 :| %25

